toonz/sources/toonzqt/Resources/paramanim_on.svg

<?xml version="1.0" encoding="utf-8"?>
<!-- Generator: Adobe Illustrator 21.0.2, SVG Export Plug-In . SVG Version: 6.00 Build 0)  -->
<svg version="1.1"
	 id="svg2" inkscape:version="0.91 r13725" sodipodi:docname="paramanim_on.svg" xmlns:cc="http://creativecommons.org/ns#" xmlns:dc="http://purl.org/dc/elements/1.1/" xmlns:inkscape="http://www.inkscape.org/namespaces/inkscape" xmlns:rdf="http://www.w3.org/1999/02/22-rdf-syntax-ns#" xmlns:sodipodi="http://sodipodi.sourceforge.net/DTD/sodipodi-0.dtd" xmlns:svg="http://www.w3.org/2000/svg"
	 xmlns="http://www.w3.org/2000/svg" xmlns:xlink="http://www.w3.org/1999/xlink" x="0px" y="0px" viewBox="0 0 21 17"
	 style="enable-background:new 0 0 21 17;" xml:space="preserve">
<style type="text/css">
	.st0{fill:none;}
	.st1{fill:none;stroke:#6F6C50;stroke-width:2;stroke-linecap:square;stroke-miterlimit:1.5;}
	.st2{fill:#FFF082;}
	.st3{stroke:#000000;stroke-width:0.5;stroke-linejoin:round;stroke-miterlimit:1.4142;}
</style>
<sodipodi:namedview  bordercolor="#666666" borderopacity="1" gridtolerance="10" guidetolerance="10" id="namedview15" inkscape:current-layer="svg2" inkscape:cx="10.5" inkscape:cy="8.5" inkscape:pageopacity="0" inkscape:pageshadow="2" inkscape:window-height="500" inkscape:window-maximized="0" inkscape:window-width="1109" inkscape:window-x="0" inkscape:window-y="0" inkscape:zoom="13.882353" objecttolerance="10" pagecolor="#ffffff" showgrid="false">
	</sodipodi:namedview>
<rect id="rect5" y="0" class="st0" width="21" height="17"/>
<g id="g7">
	<rect id="rect9" x="5" y="3" class="st1" width="11" height="10"/>
	<rect id="rect11" x="5" y="3" class="st2" width="11" height="10"/>
</g>
<path id="path13" inkscape:connector-curvature="0" class="st3" d="M15,4.6c0.1,0,0.1,0,0.2,0.1c0.2,0.1,0.2,0.4,0.1,0.6
	c-0.1,0.1-0.2,0.1-0.2,0.1c-0.1,0-0.2,0-0.3,0c-0.1,0-0.3,0-0.4,0.1c-0.4,0.1-0.7,0.2-1,0.4C13.1,6,13,6.1,12.8,6.2
	c-1.4,1.4-2.7,2.8-4.1,4.1c-0.2,0.1-0.3,0.3-0.5,0.4c-0.4,0.3-0.9,0.5-1.4,0.6c-0.3,0.1-0.6,0.1-0.8,0.1l0,0c-0.1,0-0.1,0-0.2-0.1
	c-0.2-0.1-0.2-0.4-0.1-0.6c0.1-0.1,0.2-0.1,0.2-0.1c0.1,0,0.2,0,0.3,0c0.1,0,0.3,0,0.4-0.1c0.4-0.1,0.7-0.2,1-0.4
	C7.9,10,8,9.9,8.2,9.8c1.4-1.4,2.7-2.8,4.1-4.1c0.1-0.1,0.3-0.2,0.4-0.4c0.4-0.3,0.9-0.5,1.3-0.6c0.2-0.1,0.5-0.1,0.7-0.1
	C14.9,4.6,15,4.6,15,4.6z"/>
</svg>

<?xml version="1.0" encoding="UTF-8" standalone="no"?>
<!DOCTYPE svg PUBLIC "-//W3C//DTD SVG 1.1//EN" "http://www.w3.org/Graphics/SVG/1.1/DTD/svg11.dtd">
<svg width="21px" height="17px" version="1.1" xmlns="http://www.w3.org/2000/svg" xmlns:xlink="http://www.w3.org/1999/xlink" xml:space="preserve" xmlns:serif="http://www.serif.com/" style="fill-rule:evenodd;clip-rule:evenodd;stroke-linecap:square;stroke-miterlimit:1.5;">
    <rect id="rect5" x="0" y="0" width="21" height="17" style="fill:none;"/>
    <g id="g7">
        <rect id="rect9" x="5" y="3" width="11" height="10" style="fill:none;stroke:rgb(30,29,21);stroke-width:2px;"/>
        <rect id="rect11" x="5" y="3" width="11" height="10" style="fill:rgb(255,240,130);"/>
    </g>
    <path id="path13" d="M15,4.6C15.1,4.6 15.1,4.6 15.2,4.7C15.4,4.8 15.4,5.1 15.3,5.3C15.2,5.4 15.1,5.4 15.1,5.4L14.8,5.4C14.7,5.4 14.5,5.4 14.4,5.5C14,5.6 13.7,5.7 13.4,5.9C13.1,6 13,6.1 12.8,6.2C11.4,7.6 10.1,9 8.7,10.3C8.5,10.4 8.4,10.6 8.2,10.7C7.8,11 7.3,11.2 6.8,11.3C6.5,11.4 6.2,11.4 6,11.4C5.9,11.4 5.9,11.4 5.8,11.3C5.6,11.2 5.6,10.9 5.7,10.7C5.8,10.6 5.9,10.6 5.9,10.6L6.2,10.6C6.3,10.6 6.5,10.6 6.6,10.5C7,10.4 7.3,10.3 7.6,10.1C7.9,10 8,9.9 8.2,9.8C9.6,8.4 10.9,7 12.3,5.7C12.4,5.6 12.6,5.5 12.7,5.3C13.1,5 13.6,4.8 14,4.7C14.2,4.6 14.5,4.6 14.7,4.6L15,4.6Z" style="fill-rule:nonzero;stroke:black;stroke-width:0.5px;stroke-linecap:butt;stroke-linejoin:round;stroke-miterlimit:1.4142;"/>
</svg>
